X:1
T:Estudio En Forma De Minuetto
T:Estudio En Forma De Minuetto
T:A la Srta. Consuelo Pascual de Boldum
T:Francisco Tárrega (1852 - 1909)
C:Francisco Tárrega
%%score ( 1 2 )
L:1/8
Q:1/4=80
M:3/4
K:A
V:1 treble-8 nm="Classical Guitar" snm="Guit."
V:2 treble-8 
V:1
"^Andante" a/b/a/g/ a/e/f/g/ a/b/c'/d'/ | e'2 !-(!a/!-)!b/(c'/b/) (d'/c'/)b/a/ | %2
"^VII" [da]2 [dg]2 z2 | b/c'/b/^a/ b/g/=a/b/ c'/d'/e'/^e'/ | %4
 f'2 !-(!b/!-)!c'/(d'/c'/) e'/d'/c'/b/ | [db]2 [da]2 z2 | e/a/e/d/ c/e/c/B/ A/G/A/^A/ | %7
{/c} B/^A/B/c/ d/e/(^e/f/) d/c/d/B/ | ce/c/ A2 [GB]2 | T[GB]2 A2 z2 :: %10
[K:E] (g/^^f/)(g/a/) (b/g/)(g/e/) e/B/(B/e/) |"^II" (e/d/)d/c/ d2 B,/C/D/E/ | %12
 FB (D/F/)A/B/ d/f/a/c'/ | (c'/b/)g/e/ [GB]2"^VII" B2 | (g/^^f/)g/a/ b/e/d/e/ ^f/g/a/b/ | %15
 (^b/c'/)(g/a/) (^e/f/)(^A/B/) A2 | z/ G/B/e/ (g/e/)B/G/"^II" c/d/d/f/ | f2 e2 z2 :| %18
[K:A] a/b/a/g/ a/e/f/g/ a/b/c'/d'/ | e'2 !-(!a/!-)!b/(c'/b/) (d'/c'/)b/a/ |"^VII" [da]2 [dg]2 z2 | %21
 b/c'/b/^a/ b/g/=a/b/ c'/d'/e'/^e'/ | f'2 !-(!b/!-)!c'/(d'/c'/) e'/d'/c'/b/ | [db]2 [ca]2 z2 | %24
 e/(e'/c'/)a/ e/(c'/a/)e/ c/(a/e/)c/ |{/c} B/^A/B/c/ d/e/(^e/f/) d/c/d/B/ | ce/c/ A2 [GB]2 | %27
 T[GB]2 A2 z2 |] %28
V:2
 x6 | x6 | E,2 E2 z2 | x6 | x6 | E,2 A,2 z2 | x6 | D4 D2 | [E,E]4 [E,D]2 | [A,D]2 [A,C]2 z2 :: %10
[K:E] [E,B]4 z2 | [F,A]4 z2 | F2 z2 z2 | E,4 z2 | [E,B]4 z2 | A,4 ^A/F,/G,/A,/ | B,4 [B,A]2 | %17
 [E,Ad]2 [EGB]2 z2 :|[K:A] x6 | x6 | E,2 A,2 z2 | x6 | x6 | E,2 A,2 z2 | x6 | D4 D2 | %26
 [E,E]4 [E,D]2 | [A,D]2 [A,C]2 z2 |] %28

